assets/aqua_logo_color.svg

<svg fill="none" height="20" viewBox="0 0 95 20" width="95" xmlns="http://www.w3.org/2000/svg"><path clip-rule="evenodd" d="m0 13.4364 11.9864-13.4364 11.9863 13.4364-7.9727 6.0863h-8.03637zm11.8481 3.6089c-2.18369-.0664-4.11221-1.5609-4.59356-3.6089h-.00321c-.07514-.3196-.11497-.6525-.11497-.9955 0-.85.39091-2.0318.78636-2.71817.41393-.81673.99538-1.74488 1.5871-2.68942.85728-1.36847 1.73618-2.77136 2.15838-3.91967l.2045-.57273c.0364-.10455.1864-.10455.2228 0l.2.55909c.0022.00454.0034.00908.0045.01363v.00001.00001c.0011.00454.0023.00908.0045.01362v.00455c.4255 1.14705 1.3039 2.54771 2.16 3.91286.5892.93939 1.1678 1.86196 1.5809 2.6735.3955.68632.7864 1.86822.7864 2.71822.0038 2.1095-1.4971 3.8381-3.4498 4.4097-.4036.118-.8265.1868-1.2593.1994h-.1363-.1319c-.0021-.0001-.0042-.0002-.0064-.0002zm77.1027-1.0726 1.7772 3.4682h3.8864l-1.7773-3.4682-1.2909-2.5363h-.0011l-6.8443-13.4364-8.1407 15.9723-.0002.0004-1.7773 3.4682h3.8909l1.7773-3.4682 4.25-8.33179 2.9562 5.79549h-.0017l1.2951 2.5356zm-41.2858-3.8363c-.126.4602-.2767.8939-.4518 1.3h.0154c-.1.2227-.2045.4409-.3136.6454-.3136.5773-.6682 1.0909-1.0727 1.5273-.4046.4364-.8228.8091-1.25 1.1136v.0546h4.6818v.0045h.0136v2.7364h-11.4591c-1.5181 0-2.9-.2227-4.1454-.6591-1.2455-.4364-2.3091-1.0727-3.1955-1.9046-.8863-.8318-1.5727-1.85-2.0545-3.059-.0591-.15-.1136-.3045-.1682-.459v-.0001h.001c-.3704-1.0955-.5555-2.3167-.5555-3.66367 0-1.45.2545-2.76818.7636-3.95909s1.2227-2.21364 2.1318-3.07273c.9137-.85909 1.9909-1.52273 3.2318-2.000001 1.2455-.472727 2.5909-.7090908 4.0364-.7090908 1.45 0 2.7909.2363638 4.0273.7090908 1.2363.472731 2.3045 1.140911 3.2045 2.000001.9046.85909 1.6046 1.88182 2.1046 3.07273s.75 2.50909.75 3.95909c0 .85907-.1 1.64547-.2955 2.36367zm-12.3454-8.56367c.7954-.34091 1.65-.50909 2.5636-.50909.9682 0 1.8454.17272 2.6318.50909.7864.34091 1.4636.80454 2.0273 1.39545.5636.58637.9954 1.29546 1.3 2.11818.3045.82273.4545 1.71364.4545 2.68182 0 1.01822-.1591 1.94542-.4818 2.77732-.3227.8318-.7682 1.5409-1.3409 2.1318s-1.2591 1.05-2.0545 1.3818c-.7955.3318-1.6591.4954-2.591.4954-.95 0-1.8181-.1636-2.6045-.4954-.7909-.3318-1.4636-.7909-2.0273-1.3818-.5636-.5909-1-1.3-1.3136-2.1318-.3136-.8319-.4682-1.7591-.4682-2.77732 0-.96363.1636-1.85909.4955-2.68182.3318-.82272.7818-1.52727 1.3545-2.11818s1.2591-1.05454 2.0546-1.39545zm35.0527 12.06367c.3955-.9228.5909-1.9546.5909-3.1v-12.022764h-3.3818v11.886364c0 .5545-.0727 1.1045-.2136 1.65-.016.0616-.0331.1226-.0515.1828-.1186.3816-.2839.7331-.4959 1.0562-.0511.0767-.105.1516-.1617.2246-.3318.4273-.7682.7773-1.3137 1.0455-.5454.2682-1.5727.4045-2.3772.4045-.8046 0-1.8319-.1363-2.3773-.4045-.5455-.2682-.9818-.6182-1.3136-1.0455-.3273-.4318-.5682-.9181-.7091-1.4636s-.2137-1.0955-.2137-1.65v-11.886364h-3.3818v12.022764c0 .3082.0138.6081.0416.9h-.0007c.0138.1415.0307.2809.0508.4184.069.4751.177.9276.3245 1.3578.0493.1437.103.285.1611.4238l.0003.0007c.3818.9224.9181 1.704 1.6088 2.3493.6863.6454 1.4954 1.1409 2.4272 1.4909.8114.3062 1.9569.4767 2.9614.5146.1255.0047.2489.0074.3691.008l.0514.0001c.1363 0 .2769-.0027.4203-.0081 1.0037-.0379 2.1461-.2084 2.9615-.5146l.001-.0004c.9269-.35 1.731-.8453 2.4126-1.4905l.0012-.0011c.6812-.6453 1.2172-1.4267 1.6079-2.3489z" fill="#00a1cc" fill-rule="evenodd"/></svg>

<svg width="95" height="20" viewBox="0 0 95 20" fill="none" xmlns="http://www.w3.org/2000/svg">
<path fill-rule="evenodd" clip-rule="evenodd" d="M0 13.4364L11.9864 0L23.9727 13.4364L16 19.5227H7.96363L0 13.4364ZM11.8481 17.0453C9.66441 16.9789 7.73589 15.4844 7.25454 13.4364H7.25133C7.17619 13.1168 7.13636 12.7839 7.13636 12.4409C7.13636 11.5909 7.52727 10.4091 7.92272 9.72273C8.33665 8.906 8.9181 7.97785 9.50982 7.03331C10.3671 5.66484 11.246 4.26195 11.6682 3.11364L11.8727 2.54091C11.9091 2.43636 12.0591 2.43636 12.0955 2.54091L12.2955 3.1C12.2977 3.10454 12.2989 3.10908 12.3 3.11363L12.3 3.11364L12.3 3.11365C12.3011 3.11819 12.3023 3.12273 12.3045 3.12727V3.13182C12.73 4.27887 13.6084 5.67953 14.4645 7.04468C15.0537 7.98407 15.6323 8.90664 16.0454 9.71818C16.4409 10.4045 16.8318 11.5864 16.8318 12.4364C16.8356 14.5459 15.3347 16.2745 13.382 16.8461C12.9784 16.9641 12.5555 17.0329 12.1227 17.0455H11.9864H11.8545C11.8524 17.0454 11.8503 17.0453 11.8481 17.0453ZM88.9508 15.9727L90.728 19.4409H94.6144L92.8371 15.9727L91.5462 13.4364H91.5451L84.7008 0L76.5601 15.9723L76.5599 15.9727L74.7826 19.4409H78.6735L80.4508 15.9727L84.7008 7.64091L87.657 13.4364H87.6553L88.9504 15.972L88.9508 15.9727ZM47.665 12.1364C47.539 12.5966 47.3883 13.0303 47.2132 13.4364H47.2286C47.1286 13.6591 47.0241 13.8773 46.915 14.0818C46.6014 14.6591 46.2468 15.1727 45.8423 15.6091C45.4377 16.0455 45.0195 16.4182 44.5923 16.7227V16.7773H49.2741V16.7818H49.2877V19.5182H37.8286C36.3105 19.5182 34.9286 19.2955 33.6832 18.8591C32.4377 18.4227 31.3741 17.7864 30.4877 16.9545C29.6014 16.1227 28.915 15.1045 28.4332 13.8955C28.3741 13.7455 28.3196 13.591 28.265 13.4365L28.265 13.4364H28.266C27.8956 12.3409 27.7105 11.1197 27.7105 9.77273C27.7105 8.32273 27.965 7.00455 28.4741 5.81364C28.9832 4.62273 29.6968 3.6 30.6059 2.74091C31.5196 1.88182 32.5968 1.21818 33.8377 0.740909C35.0832 0.268182 36.4286 0.0318182 37.8741 0.0318182C39.3241 0.0318182 40.665 0.268182 41.9014 0.740909C43.1377 1.21364 44.2059 1.88182 45.1059 2.74091C46.0105 3.6 46.7105 4.62273 47.2105 5.81364C47.7105 7.00455 47.9605 8.32273 47.9605 9.77273C47.9605 10.6318 47.8605 11.4182 47.665 12.1364ZM35.3196 3.57273C36.115 3.23182 36.9696 3.06364 37.8832 3.06364C38.8514 3.06364 39.7286 3.23636 40.515 3.57273C41.3014 3.91364 41.9786 4.37727 42.5423 4.96818C43.1059 5.55455 43.5377 6.26364 43.8423 7.08636C44.1468 7.90909 44.2968 8.8 44.2968 9.76818C44.2968 10.7864 44.1377 11.7136 43.815 12.5455C43.4923 13.3773 43.0468 14.0864 42.4741 14.6773C41.9014 15.2682 41.215 15.7273 40.4196 16.0591C39.6241 16.3909 38.7605 16.5545 37.8286 16.5545C36.8786 16.5545 36.0105 16.3909 35.2241 16.0591C34.4332 15.7273 33.7605 15.2682 33.1968 14.6773C32.6332 14.0864 32.1968 13.3773 31.8832 12.5455C31.5696 11.7136 31.415 10.7864 31.415 9.76818C31.415 8.80455 31.5786 7.90909 31.9105 7.08636C32.2423 6.26364 32.6923 5.55909 33.265 4.96818C33.8377 4.37727 34.5241 3.91364 35.3196 3.57273ZM70.3723 15.6364C70.7678 14.7136 70.9632 13.6818 70.9632 12.5364V0.513636H67.5814V12.4C67.5814 12.9545 67.5087 13.5045 67.3678 14.05C67.3518 14.1116 67.3347 14.1726 67.3163 14.2328C67.1977 14.6144 67.0324 14.9659 66.8204 15.289C66.7693 15.3657 66.7154 15.4406 66.6587 15.5136C66.3269 15.9409 65.8905 16.2909 65.345 16.5591C64.7996 16.8273 63.7723 16.9636 62.9678 16.9636C62.1632 16.9636 61.1359 16.8273 60.5905 16.5591C60.045 16.2909 59.6087 15.9409 59.2769 15.5136C58.9496 15.0818 58.7087 14.5955 58.5678 14.05C58.4269 13.5045 58.3541 12.9545 58.3541 12.4V0.513636H54.9723V12.5364C54.9723 12.8446 54.9861 13.1445 55.0139 13.4364H55.0132C55.027 13.5779 55.0439 13.7173 55.064 13.8548C55.133 14.3299 55.241 14.7824 55.3885 15.2126C55.4378 15.3563 55.4915 15.4976 55.5496 15.6364L55.5499 15.6371C55.9317 16.5595 56.468 17.3411 57.1587 17.9864C57.845 18.6318 58.6541 19.1273 59.5859 19.4773C60.3973 19.7835 61.5428 19.954 62.5473 19.9919C62.6728 19.9966 62.7962 19.9993 62.9164 19.9999L62.9678 20C63.1041 20 63.2447 19.9973 63.3881 19.9919C64.3918 19.954 65.5342 19.7835 66.3496 19.4773L66.3506 19.4769C67.2775 19.1269 68.0816 18.6316 68.7632 17.9864L68.7644 17.9853C69.4456 17.34 69.9816 16.5586 70.3723 15.6364Z" fill="#00A1CC"/>
</svg>
